assets/images/icons/src/i-cursor.svg

<?xml version="1.0" encoding="utf-8"?>
<!-- Generated by IcoMoon.io -->
<!DOCTYPE svg PUBLIC "-//W3C//DTD SVG 1.1//EN" "http://www.w3.org/Graphics/SVG/1.1/DTD/svg11.dtd">
<svg version="1.1" xmlns="http://www.w3.org/2000/svg" xmlns:xlink="http://www.w3.org/1999/xlink" width="7" height="14" viewBox="0 0 7 14">
<path fill="#444444" d="M6.5 1q-2.5 0-2.5 1.75v3.25h1v1h-1v4.25q0 1.75 2.5 1.75h0.5v1h-0.5q-2.125 0-3-1.141-0.875 1.141-3 1.141h-0.5v-1h0.5q2.5 0 2.5-1.75v-4.25h-1v-1h1v-3.25q0-1.75-2.5-1.75h-0.5v-1h0.5q2.125 0 3 1.141 0.875-1.141 3-1.141h0.5v1h-0.5z"></path>
</svg>

<svg xmlns="http://www.w3.org/2000/svg" width="7" height="14" viewBox="0 0 7 14"><path fill="#444" d="M6.5 1Q4 1 4 2.75V6h1v1H4v4.25Q4 13 6.5 13H7v1h-.5q-2.125 0-3-1.141Q2.625 14 .5 14H0v-1h.5Q3 13 3 11.25V7H2V6h1V2.75Q3 1 .5 1H0V0h.5q2.125 0 3 1.141Q4.375 0 6.5 0H7v1h-.5z"/></svg>
